X:689
T: Glen Highland, The
Z: Piano Box Version by Martin Fleischmann
H: Created 2015-04-10 /  Last Modified 2015-05-10
R: highland
M: 4/4
L: 1/8
K: Amix
"pipe version"A2 eA (3Bcd ef|g2 dG d<g dB|A2 eA cd ef|[1(3gfe (3dcB  (3cde (3dcB :|[2 (3gfe (3dcB (3cBA ce||
a2 ed c<A ef|g2 dG B<G dg|ga ed c<A ef| (3gfe (3dcB (3cBA ce|
a2 ed c<A ef|g2 dG Bd ga|(3bag (3agf (3gfe (3fga|(3gfe (3dcB (3cde (3dcB||
|:"version on session"A2 eA (3Bcd ef|g2 dg Bg dB|A2 eA (3Bcd ef|[1(3gfe (3dcB (3cde (3dcB |2gfgB B2 A2||
|:a2 ea (3Bcd ef|g2 dg Bg dg|[1a2 ea (3Bcd ef|gfgB B2 A2|[2bgaf gfed (3gfe (3dcB (3cde (3dcB||

